public/icons/globe.svg

<svg width="25" height="24" viewBox="0 0 25 24" fill="none" xmlns="http://www.w3.org/2000/svg">
<path fill-rule="evenodd" clip-rule="evenodd" d="M12.9163 23C18.9914 23 23.9163 18.0751 23.9163 12C23.9163 5.92487 18.9914 1 12.9163 1C6.84116 1 1.91629 5.92487 1.91629 12C1.91629 18.0751 6.84116 23 12.9163 23ZM10.642 3.28983C7.0851 4.21597 4.3843 7.26324 3.97122 11H7.96638C8.19059 8.23681 9.11539 5.58442 10.642 3.28983ZM15.1906 3.28983C16.7172 5.58442 17.642 8.23681 17.8662 11H21.8614C21.4483 7.26324 18.7475 4.21597 15.1906 3.28983ZM15.8587 11C15.6075 8.28683 14.586 5.70193 12.9163 3.5508C11.2466 5.70193 10.2251 8.28683 9.97388 11H15.8587ZM9.97388 13H15.8587C15.6075 15.7132 14.586 18.2981 12.9163 20.4492C11.2466 18.2981 10.2251 15.7132 9.97388 13ZM7.96638 13H3.97122C4.3843 16.7368 7.0851 19.784 10.642 20.7102C9.11539 18.4156 8.19059 15.7632 7.96638 13ZM15.1906 20.7102C16.7172 18.4156 17.642 15.7632 17.8662 13H21.8614C21.4483 16.7368 18.7475 19.784 15.1906 20.7102Z" fill="#19191B"/>
</svg>

<svg xmlns="http://www.w3.org/2000/svg" width="25" height="24" fill="none"><path fill="#19191B" fill-rule="evenodd" d="M12.916 23c6.075 0 11-4.925 11-11s-4.925-11-11-11-11 4.925-11 11 4.925 11 11 11ZM10.642 3.29A9.008 9.008 0 0 0 3.972 11h3.994a16.3 16.3 0 0 1 2.676-7.71Zm4.549 0A16.3 16.3 0 0 1 17.866 11h3.995a9.008 9.008 0 0 0-6.67-7.71Zm.668 7.71a14.3 14.3 0 0 0-2.943-7.45A14.3 14.3 0 0 0 9.974 11h5.885Zm-5.885 2h5.885a14.3 14.3 0 0 1-2.943 7.45A14.3 14.3 0 0 1 9.974 13Zm-2.008 0H3.971a9.008 9.008 0 0 0 6.671 7.71A16.3 16.3 0 0 1 7.966 13Zm7.225 7.71A16.3 16.3 0 0 0 17.866 13h3.995a9.008 9.008 0 0 1-6.67 7.71Z" clip-rule="evenodd"/></svg>
